X:118
T:The Wishing Well
R:jig
C:Tommy Peoples
D:Tommy Peoples's - Waiting for a Call, Shanachie 2003
Z:Paul Stewart Cranford (P.S.C.), <http://www.cranfordpub.com>
L:1/8
M:6/8
K:D
DFA d2e | fdB BAF | dBB BAF | B/c/dB BAF |
DFA d2e | fdB BAF | BAF dBA | fac d2z ::
Adf a3 | baf afd | f2g afd | Beg bge |
Adf a3 | baf afd | b2a afd | Ace d2z ::
fdd edc | dge fdB | ccB  ceA | a3 bag |
fdd edc | dge fdA | FAD GBD | Aec d2z :|
